X:86
T: Ge haocao
N: C1579
O: China, Jiangsu, ?jiang
S: III, 475]
R: Haozi, Cheshui haozi, Wujuban]
M: 2/4
L: 1/16
K: G
d3Bd2g2 | e6de | d6BA | G8 | A2B2d2 | B4A4 | D8
dBAGAGB2 | dBAGG4 | d2ege2dB | dBGAB4
BdegeddB | dBB2A4 | d2A2D4 | dBAGAGAd | B2AGG4

